X:2632
T:Honfleur
O:england
N:July 95
M:4/4
C:Andy Hornby
A:Lancaster
K:G
DEGA B2GB|c2BG AGBG|EGDE GABG|c2BG A4|\
DEGA B2GB|c2BG AGBG|
EGcB A2G2|F3G G4 :|\
|:\
BcdG eGdG|cBcd B2G2|
EGcB A2G2|FGAB A4|\
BcdG eGdG|cBcd B2G2|EGcB A2G2|F3G G4 :|
W:Copyright (C) Andy Hornby


